X: 3215
T: WOO'D AND MARRIED AND A
%R: slip-jig
B: James Kerr "Merry Melodies" v.3 p.25 #215
Z: 2016 John Chambers <jc:trillian.mit.edu>
M: 9/8
L: 1/8
K: A
|:\
ve2vd cBc A3 | ucee eac (e2a) |\
ve2vd cBc (A2G) | uF2uf fge f3 ::\
vefg aba a3 | ucee eac (e2a) |\
e2d cBc (A2G) | F2f fge f3 :|

%%sep 1 1 500
%%sep 1 1 500

